src/status/24/indicator-cpufreq.svg

<svg viewBox="0 0 24 24" xmlns="http://www.w3.org/2000/svg">
 <path d="m8 3c-0.554 0-1 0.446-1 1v1h-0.25c-0.9695 0-1.75 0.7805-1.75 1.75v0.25h-1c-0.554 0-1 0.446-1 1s0.446 1 1 1h1v2h-1c-0.554 0-1 0.446-1 1s0.446 1 1 1h1v2h-1c-0.554 0-1 0.446-1 1s0.446 1 1 1h1v0.25c0 0.9695 0.7805 1.75 1.75 1.75h0.25v1c0 0.554 0.446 1 1 1s1-0.446 1-1v-1h2v1c0 0.554 0.446 1 1 1s1-0.446 1-1v-1h2v1c0 0.554 0.446 1 1 1s1-0.446 1-1v-1h0.25c0.9695 0 1.75-0.7805 1.75-1.75v-0.25h1c0.554 0 1-0.446 1-1s-0.446-1-1-1h-1v-2h1c0.554 0 1-0.446 1-1s-0.446-1-1-1h-1v-2h1c0.554 0 1-0.446 1-1s-0.446-1-1-1h-1v-0.25c0-0.9695-0.7805-1.75-1.75-1.75h-0.25v-1c0-0.554-0.446-1-1-1s-1 0.446-1 1v1h-2v-1c0-0.554-0.446-1-1-1s-1 0.446-1 1v1h-2v-1c0-0.554-0.446-1-1-1zm-0.15625 4h8.3125c0.46167 0 0.84375 0.38208 0.84375 0.84375v8.3125c0 0.46167-0.38208 0.84375-0.84375 0.84375h-8.3125c-0.46167 0-0.84375-0.38208-0.84375-0.84375v-8.3125c0-0.46167 0.38208-0.84375 0.84375-0.84375z" fill="#2e3440" fill-rule="evenodd"/>
 <rect x="8" y="8" width="8" height="8" rx=".6" fill="#2e3440" fill-rule="evenodd"/>
</svg>

<svg xmlns="http://www.w3.org/2000/svg" viewBox="0 0 24 24">
 <path d="M 8,3 C 7.446,3 7,3.446 7,4 L 7,5 6.75,5 C 5.7805,5 5,5.7805 5,6.75 L 5,7 4,7 C 3.446,7 3,7.446 3,8 3,8.554 3.446,9 4,9 l 1,0 0,2 -1,0 c -0.554,0 -1,0.446 -1,1 0,0.554 0.446,1 1,1 l 1,0 0,2 -1,0 c -0.554,0 -1,0.446 -1,1 0,0.554 0.446,1 1,1 l 1,0 0,0.25 C 5,18.2195 5.7805,19 6.75,19 L 7,19 7,20 c 0,0.554 0.446,1 1,1 0.554,0 1,-0.446 1,-1 l 0,-1 2,0 0,1 c 0,0.554 0.446,1 1,1 0.554,0 1,-0.446 1,-1 l 0,-1 2,0 0,1 c 0,0.554 0.446,1 1,1 0.554,0 1,-0.446 1,-1 l 0,-1 0.25,0 C 18.2195,19 19,18.2195 19,17.25 l 0,-0.25 1,0 c 0.554,0 1,-0.446 1,-1 0,-0.554 -0.446,-1 -1,-1 l -1,0 0,-2 1,0 c 0.554,0 1,-0.446 1,-1 0,-0.554 -0.446,-1 -1,-1 l -1,0 0,-2 1,0 C 20.554,9 21,8.554 21,8 21,7.446 20.554,7 20,7 L 19,7 19,6.75 C 19,5.7805 18.2195,5 17.25,5 L 17,5 17,4 C 17,3.446 16.554,3 16,3 15.446,3 15,3.446 15,4 l 0,1 -2,0 0,-1 C 13,3.446 12.554,3 12,3 11.446,3 11,3.446 11,4 L 11,5 9,5 9,4 C 9,3.446 8.554,3 8,3 z m -0.15625,4 8.3125,0 C 16.617917,7 17,7.3820833 17,7.84375 l 0,8.3125 C 17,16.617917 16.617917,17 16.15625,17 l -8.3125,0 C 7.3820833,17 7,16.617917 7,16.15625 L 7,7.84375 C 7,7.3820833 7.3820833,7 7.84375,7 z" style="fill:#2e3440;fill-opacity:1;stroke:none;fill-rule:evenodd"/>
 <rect width="8" height="8" x="8" y="8" rx="0.6" style="fill:#2e3440;fill-opacity:1;stroke:none;fill-rule:evenodd"/>
</svg>
